X:1
T:Heveynu Shalom Aleychem [Em]
Z:2008 John Chambers <jc:trillian.mit.edu>
M:2/4
L:1/8
K:Em
V:1
B, EG \
| "Em"B4 | "B7"G3 F | "Em"F E3 | zE GB | "Am(E7)"e4 | c3 B | "Am"B A3 | zA Bc |
| "B7"B3 F | B3 A | "Em"A G3 | "(Am)"zF GA | "B7"B2 [B2A2] | [B2G2] [B2F2] \
|1 "B7"B>A GA | B :|2 "B7"B>A GF | "Em"E |]
V:2
z z2 \
| zB BB | B2 G>G | F E3 | z4 | ze ee | e2 c>c | B A3 | z4 |
| z2 B2 | ^c2 ^d2 | f e2 B | (dc)(BA) | B2 B2 | B2 B2 \
|1 B2 ^c2 | ^d :|2 B>B ^c^d | e |]
